!!!!SEGMENT:Seioubo.krn
!!!OTL: 西王母
!!!OPR:Eiga Banso Kyokusyu,jidai-geki,kouhen
!!!YOY:1928
!!!ONB:Rantou
**kern
*clefG2
*k[f#]
*G:
*M2/4
=1
4c#X
4c#
=2
4cc#X
4cc#
=3
8eeL
8eeJ
8ff#L
8ccJ
=4
4b
4r
=5
8ff#L
8ff#
8ee
8ccJ
=6
8bL
8a
8b
8aJ
=7
8BL
8b
8B
8bJ
=8
8BL
8bJ
4r
=9
8f#
4f#
8b
=10
4cc#X
4b
=11
8ff#L
8ff#
8ff#
8eeJ
=12
4ff#
8bL
8aaJ
=13
8bbL
8bb
8bb
8aaJ
=14
4bb
4r
=15
8BL
8eeJ
8bbL
8bbJ
=16
4bb
4bb
=17
8bbL
8bb
8aa
8aaJ
=18
8ff#L
8ff#J
8eeL
8ccnJ
=19
8bL
8a
8b
8aJ
=20
4B
8eeL
8ccJ
=21
8bL
8aJ
4fn
=22
4e
4r
==
*-
!!!ENC: Yukiko Yoden
!!!END: 2023/06/11
